resources/haticons/SVG/android3.svg

<!-- Generated by IcoMoon.io -->
<svg version="1.1" xmlns="http://www.w3.org/2000/svg" width="24" height="24" viewBox="0 0 24 24">
<title>android3</title>
<path d="M15 5.016v-1.031h-0.984v1.031h0.984zM9.984 5.016v-1.031h-0.984v1.031h0.984zM15.516 2.156q2.484 1.781 2.484 4.828h-12q0-1.266 0.703-2.672t1.734-2.156l-1.313-1.313q-0.375-0.375 0-0.703t0.703 0l1.5 1.5q1.219-0.656 2.672-0.656 1.219 0 2.625 0.656l1.5-1.5q0.375-0.328 0.703 0t0 0.703zM20.484 8.016q0.609 0 1.055 0.445t0.445 1.055v6.984q0 0.656-0.445 1.078t-1.055 0.422-1.055-0.422-0.445-1.078v-6.984q0-0.609 0.445-1.055t1.055-0.445zM3.516 8.016q0.609 0 1.055 0.445t0.445 1.055v6.984q0 0.656-0.445 1.078t-1.055 0.422-1.055-0.422-0.445-1.078v-6.984q0-0.609 0.445-1.055t1.055-0.445zM6 18v-9.984h12v9.984q0 0.422-0.281 0.703t-0.703 0.281h-1.031v3.516q0 0.656-0.445 1.078t-1.055 0.422-1.055-0.422-0.445-1.078v-3.516h-1.969v3.516q0 0.656-0.445 1.078t-1.055 0.422-1.055-0.422-0.445-1.078v-3.516h-1.031q-0.422 0-0.703-0.281t-0.281-0.703z"></path>
</svg>

<svg xmlns="http://www.w3.org/2000/svg" width="24" height="24"><path d="M15 5.016V3.985h-.984v1.031H15zm-5.016 0V3.985H9v1.031h.984zm5.532-2.86Q18 3.937 18 6.984H6q0-1.266.703-2.672t1.734-2.156L7.124.843q-.375-.375 0-.703t.703 0l1.5 1.5q1.219-.656 2.672-.656 1.219 0 2.625.656l1.5-1.5q.375-.328.703 0t0 .703zm4.968 5.86q.609 0 1.055.445t.445 1.055V16.5q0 .656-.445 1.078T20.484 18t-1.055-.422-.445-1.078V9.516q0-.609.445-1.055t1.055-.445zm-16.968 0q.609 0 1.055.445t.445 1.055V16.5q0 .656-.445 1.078T3.516 18t-1.055-.422-.445-1.078V9.516q0-.609.445-1.055t1.055-.445zM6 18V8.016h12V18q0 .422-.281.703t-.703.281h-1.031V22.5q0 .656-.445 1.078T14.485 24t-1.055-.422-.445-1.078v-3.516h-1.969V22.5q0 .656-.445 1.078T9.516 24t-1.055-.422-.445-1.078v-3.516H6.985q-.422 0-.703-.281T6.001 18z"/></svg>
